X:1
T:Title
%%score { ( 1 3 ) | ( 2 4 ) }
L:1/8
Q:1/4=100
M:4/4
K:F
V:1 treble nm="Grand Piano"
V:3 treble 
V:2 bass 
V:4 bass 
V:1
 A>_A =A>_A =A>F G>A | [DG]2 D2 z2 G,2 | E>_E =E>_E =E>C D>E | F2 [EG]2 A4 | A>_A =A>_A =A>F G>A | %5
w: Haldor~Lillenas * * * * * * *|||||
 [DFB]2 [Fd]2 [Fd]2 [Fd]2 | [Fc]>[F=B] [Fc]>[Fd] [Fc]2 [FA]>F | [EG]4 F2 z2 | c>c c>c c2 A>F | %9
w: ||||
 E>F [EG]>[FA] [GB]4 | [GB]>[GB] [GB]>[GB] [GB]2 [EG]2 | F>E F>G A4 | (3ccc c>c [Fd]2 [Fd]2 | %13
w: ||||
 (3[Fc][Fc][Fc] [Fc]>[Fc] [Fd]2 [Fd]2 | [Fc]>[F=B] [Fc]>[Fd] [Fc]2 [CFA]>[A,F] | %15
w: ||
[M:9/8] [B,EG]3- [B,EG] [A,F]2- [A,F] z z |] %16
w: |
V:2
 [F,CF]>[F,=B,F] [F,CF]>[F,B,F] [F,CF]>[F,A,] [F,_B,F]>[F,CF] | z4 B,4 | %2
 [C,G,C]>[C,^F,C] [C,G,C]>[C,F,C] [C,G,C]>[C,B,] [C,B,C]>[C,B,C] | [F,A,C]2 [C,C]2 [F,CF]4 | %4
 [F,CF]>[F,=B,F] [F,CF]>[F,B,F] [F,CF]>[F,A,] [F,_B,F]>[F,CF] | B,,2 [B,,B,]2 [B,,B,]2 [B,,B,]2 | %6
 [C,A,]>[C,_A,] [C,=A,]>[C,B,] [C,A,]2 [C,C]>[C,A,] | [C,B,]4 [F,A,]2 z2 | %8
 [F,A,F]>[F,A,F] [F,A,F]>[F,A,F] [F,A,F]2 [F,CF]>[F,A,] | [C,B,C]>[C,A,C] [C,G,]>[C,C] [C,C]4 | %10
 [C,C]>[C,C] [C,C]>[C,C] [C,C]2 [C,B,]2 | [F,A,C]>[G,B,C] [F,A,C]>[E,G,C] [F,C]4 | %12
 (3[F,A,F][F,A,F][F,A,F] [F,A,F]>[F,A,F] [B,,B,]2 [B,,B,]2 | %13
 (3[C,A,][C,A,][C,A,] [C,A,]>[C,A,] [B,,B,]2 [=B,,_A,]2 | %14
 [C,A,]>[C,_A,] [C,=A,]>[C,B,] [C,A,]2 C,>C, |[M:9/8] C,3- C, F,2- F, z z |] %16
V:3
 x8 | z4 D4 | x8 | x8 | x8 | x8 | x8 | x8 | x8 | x8 | x8 | x8 | x8 | x8 | x8 |[M:9/8] x9 |] %16
V:4
 x8 | [B,,B,]2 [B,,F,B,]2 [B,,F,]2 G,,2 | x8 | x8 | x8 | x8 | x8 | x8 | x8 | x8 | x8 | x8 | x8 | %13
 x8 | x8 |[M:9/8] x9 |] %16

